packages/foundations/icons/Business/Dollar.svg

<svg width="24" height="24" viewBox="0 0 24 24" fill="none" xmlns="http://www.w3.org/2000/svg">
<path fill-rule="evenodd" clip-rule="evenodd" d="M13.3158 2C13.3158 1.44772 12.8681 1 12.3158 1C11.7635 1 11.3158 1.44772 11.3158 2V2.89318C10.8131 2.94634 10.3126 3.05437 9.81525 3.22016C7.945 3.84358 6.30227 5.324 6.01384 7.24691C5.69952 9.34234 7.06177 11.2166 9.70286 12.3904C10.0944 12.5644 10.7609 12.7197 11.3158 12.8388V17.9273C9.8902 17.7403 8.26704 17.1208 6.72655 16.0204C6.16479 15.6192 5.3841 15.7493 4.98284 16.311C4.58158 16.8728 4.71169 17.6535 5.27346 18.0548C7.17885 19.4158 9.31649 20.2481 11.3158 20.4441V22C11.3158 22.5523 11.7635 23 12.3158 23C12.8681 23 13.3158 22.5523 13.3158 22V20.4159C13.4056 20.4036 13.4949 20.3897 13.5834 20.3742C16.2588 19.9071 18.36 18.2311 18.5609 15.9637C18.7718 13.5837 16.8372 11.6504 13.6973 10.794C13.5971 10.7667 13.4659 10.7357 13.3158 10.7025V5.51552C14.237 5.7434 15.2356 6.22322 16.3261 7.00213C16.8879 7.40339 17.6685 7.27328 18.0698 6.71151C18.4711 6.14974 18.341 5.36906 17.7792 4.9678C16.2973 3.9093 14.802 3.2167 13.3158 2.96276V2ZM13.3158 13.2855C13.2265 13.2584 13.1344 13.2318 13.0395 13.206C12.8686 13.1593 12.5585 13.0959 12.1614 13.0147C11.9682 12.9751 11.7543 12.9314 11.526 12.8834C11.4584 12.8691 11.388 12.8542 11.3158 12.8388V10.2757C11.5351 10.3284 11.7828 10.3826 12.0408 10.4369C12.2011 10.4707 12.3719 10.5056 12.5426 10.5406C12.8151 10.5963 13.0873 10.652 13.3158 10.7025V13.2855ZM13.3158 13.2855C15.7196 14.0155 16.1211 15.1742 16.0707 15.7431C16.0101 16.4268 15.2567 17.4928 13.3158 17.8811V13.2855ZM11.3158 10.2757C11.2666 10.2639 11.2189 10.2522 11.1728 10.2405C11.0472 10.2088 10.9417 10.1797 10.8575 10.1538C10.8157 10.1409 10.7826 10.1299 10.7574 10.1209C10.7449 10.1164 10.7354 10.1128 10.7284 10.11L10.7182 10.1059C8.62245 9.17441 8.40575 8.1539 8.48618 7.61776C8.59248 6.90909 9.31817 6.02108 10.6058 5.59187C10.8368 5.51487 11.0733 5.4559 11.3158 5.41621V10.2757Z" fill="#3D474D"/>
<path d="M12.5426 10.5406C12.3719 10.5056 12.2011 10.4707 12.0408 10.4369C11.7828 10.3826 11.5351 10.3284 11.3158 10.2757V12.8388C11.388 12.8542 11.4584 12.8691 11.526 12.8834C11.7543 12.9314 11.9682 12.9751 12.1614 13.0147C12.5585 13.0959 12.8686 13.1593 13.0395 13.206C13.1344 13.2318 13.2265 13.2584 13.3158 13.2855V10.7025C13.0873 10.652 12.8151 10.5963 12.5426 10.5406Z" fill="#3D474D"/>
</svg>

<svg width="24" height="24" fill="none" xmlns="http://www.w3.org/2000/svg"><path fill-rule="evenodd" clip-rule="evenodd" d="M13.316 2a1 1 0 10-2 0v.893a7.091 7.091 0 00-1.5.327c-1.871.624-3.514 2.104-3.802 4.027-.314 2.095 1.048 3.97 3.689 5.143.391.174 1.058.33 1.613.449v5.088c-1.426-.187-3.049-.806-4.59-1.907a1.25 1.25 0 00-1.453 2.035c1.906 1.36 4.043 2.193 6.043 2.39V22a1 1 0 102 0v-1.584c.09-.012.179-.026.267-.042 2.676-.467 4.777-2.143 4.978-4.41.21-2.38-1.724-4.314-4.864-5.17a8.617 8.617 0 00-.381-.091V5.516c.921.227 1.92.707 3.01 1.486a1.25 1.25 0 101.453-2.034c-1.482-1.059-2.977-1.751-4.463-2.005V2zm0 11.286a9.847 9.847 0 00-.277-.08c-.17-.047-.48-.11-.878-.191l-.635-.132-.21-.044v-2.563c.22.052.467.107.725.16.16.035.33.07.502.105.272.055.544.111.773.162v2.583zm0 0c2.404.73 2.805 1.888 2.755 2.457-.06.684-.814 1.75-2.755 2.138v-4.595zm-2-3.01a11.226 11.226 0 01-.459-.122 2.467 2.467 0 01-.129-.044l-.01-.004c-2.096-.932-2.312-1.952-2.232-2.488.106-.709.832-1.597 2.12-2.026.23-.077.467-.136.71-.176v4.86z" fill="#3D474D"/><path d="M12.543 10.54c-.171-.034-.342-.07-.502-.103a26.852 26.852 0 01-.725-.161v2.563l.21.044.635.132c.398.08.708.144.879.191.094.026.187.052.276.08v-2.583c-.229-.051-.5-.107-.773-.162z" fill="#3D474D"/></svg>
